public/naqsh.svg

<svg width="22" height="22" viewBox="0 0 22 22" fill="none" xmlns="http://www.w3.org/2000/svg">
<g clip-path="url(#clip0_154_9)">
<path d="M15.607 16.7513C15.3281 19.3098 12.6657 18.9055 10.9966 21.1069C10.1999 20.1744 9.24451 19.5146 8.13555 19.056C6.79559 18.5017 6.14027 17.2039 6.3452 15.6637C4.73574 15.8204 3.42592 15.1614 2.85392 13.6974C2.44325 12.6461 1.74801 11.7634 0.890625 10.9896C1.79975 10.1841 2.46261 9.26969 2.90587 8.18476C3.46911 6.80569 4.78687 6.1353 6.32035 6.32862C6.1307 4.78006 6.83348 3.43704 8.24005 2.87482C9.29687 2.45254 10.1903 1.78358 10.9811 0.892578C11.7244 1.71412 12.5873 2.41343 13.6235 2.80984C15.1175 3.38123 15.8527 4.72954 15.653 6.36202C17.2892 6.12613 18.5766 6.88065 19.1447 8.30699C19.5635 9.3583 20.2146 10.2813 21.1096 10.9718C20.1535 11.7826 19.5116 12.7868 19.0215 13.9007C18.5911 14.8789 17.7797 15.5091 16.7168 15.6185L15.7192 15.721L15.6068 16.7515L15.607 16.7513ZM11.0092 20.7402C11.7507 19.9476 12.5804 19.3257 13.5478 18.9503C15.0038 18.385 15.6439 17.0489 15.3998 15.4503C17.2692 15.4967 18.2126 15.1647 18.9225 13.567C19.3637 12.5742 19.9571 11.738 20.7554 10.9786C19.9033 10.2293 19.3354 9.32876 18.883 8.3135C18.4786 7.4058 17.7516 6.66574 16.7143 6.5971L15.4448 6.51317C15.5365 4.86602 15.1466 3.75625 13.6918 3.11845C12.6775 2.67397 11.7763 2.10767 11.0053 1.24743C10.2341 2.01987 9.32314 2.70656 8.25024 3.13149C6.07855 3.99132 6.6475 6.52987 6.46314 6.53517L6.09037 6.54597C4.77648 6.45267 3.62453 7.0481 3.12016 8.27704C2.70013 9.30025 2.08413 10.1825 1.24629 10.9961C2.10266 11.7901 2.69911 12.7245 3.15357 13.7736C3.52981 14.6422 4.2499 15.2855 5.19875 15.3718L6.52935 15.493C6.46803 17.0705 6.80272 18.2123 8.22803 18.8354C9.282 19.2962 10.1901 19.8861 11.0094 20.74L11.0092 20.7402Z" fill="#003837" stroke="#003837" stroke-width="0.453704" stroke-miterlimit="10"/>
</g>
<defs>
<clipPath id="clip0_154_9">
<rect width="22" height="22" fill="white"/>
</clipPath>
</defs>
</svg>

<svg xmlns="http://www.w3.org/2000/svg" width="22" height="22" fill="none" viewBox="0 0 22 22"><g clip-path="url(#a)"><path fill="#003837" stroke="#003837" stroke-miterlimit="10" stroke-width=".454" d="M15.607 16.751c-.279 2.559-2.941 2.154-4.61 4.356-.797-.933-1.752-1.592-2.861-2.051-1.34-.554-1.996-1.852-1.79-3.392-1.61.156-2.92-.503-3.492-1.967-.41-1.05-1.106-1.934-1.963-2.707.909-.806 1.572-1.72 2.015-2.805.563-1.38 1.88-2.05 3.414-1.856-.19-1.549.513-2.892 1.92-3.454 1.057-.422 1.95-1.091 2.741-1.982.743.821 1.606 1.52 2.643 1.917 1.493.571 2.229 1.92 2.029 3.552 1.636-.236 2.924.519 3.492 1.945.419 1.051 1.07 1.974 1.965 2.665-.956.81-1.598 1.815-2.088 2.929-.43.978-1.242 1.608-2.305 1.717l-.998.103-.112 1.03Zm-4.598 3.99c.742-.793 1.571-1.415 2.539-1.79 1.456-.566 2.096-1.902 1.852-3.5 1.87.046 2.813-.286 3.522-1.884a7.95 7.95 0 0 1 1.833-2.588c-.852-.75-1.42-1.65-1.872-2.665-.404-.908-1.131-1.648-2.169-1.717l-1.27-.084c.092-1.647-.297-2.757-1.752-3.395-1.014-.444-1.916-1.01-2.687-1.87-.77.772-1.682 1.459-2.755 1.883-2.171.86-1.602 3.399-1.787 3.404l-.373.011c-1.314-.093-2.465.502-2.97 1.731-.42 1.023-1.036 1.906-1.874 2.72.857.793 1.453 1.728 1.908 2.777.376.868 1.096 1.512 2.045 1.598l1.33.121c-.061 1.577.274 2.72 1.699 3.342 1.054.461 1.962 1.051 2.781 1.905Z"/></g><defs><clipPath id="a"><path fill="#fff" d="M0 0h22v22H0z"/></clipPath></defs></svg>
